icons/mini/briefcase.svg

<svg width="20" height="20" viewBox="0 0 20 20" fill="none" xmlns="http://www.w3.org/2000/svg">
<path fill-rule="evenodd" clip-rule="evenodd" d="M6 3.75C6 2.23122 7.23122 1 8.75 1H11.25C12.7688 1 14 2.23122 14 3.75V4.19269C14.572 4.24808 15.1407 4.31524 15.7057 4.39392C17.0526 4.58149 18 5.74901 18 7.07023V10.5386C18 11.6653 17.3058 12.7301 16.1705 13.0786C14.2185 13.6778 12.1462 14 10 14C7.8538 14 5.78149 13.6778 3.82951 13.0786C2.69423 12.7301 2 11.6653 2 10.5386V7.07023C2 5.74901 2.94737 4.58149 4.29435 4.39392C4.85933 4.31524 5.42796 4.24808 6 4.19269V3.75ZM12.5 3.75V4.07499C11.673 4.02523 10.8394 4 10 4C9.16061 4 8.32704 4.02523 7.5 4.07499V3.75C7.5 3.05964 8.05964 2.5 8.75 2.5H11.25C11.9404 2.5 12.5 3.05964 12.5 3.75ZM10 10C9.44772 10 9 10.4477 9 11V11.01C9 11.5623 9.44772 12.01 10 12.01H10.01C10.5623 12.01 11.01 11.5623 11.01 11.01V11C11.01 10.4477 10.5623 10 10.01 10H10Z" fill="#0F172A"/>
<path d="M3 15.0552V14.3714C3.1256 14.4243 3.25542 14.4715 3.38933 14.5126C5.48234 15.1551 7.70295 15.5 10 15.5C12.297 15.5 14.5177 15.1551 16.6107 14.5126C16.7446 14.4715 16.8744 14.4243 17 14.3714V15.0552C17 16.4024 16.0154 17.5854 14.6369 17.7406C13.1147 17.9119 11.5675 17.9999 10 17.9999C8.43253 17.9999 6.88533 17.9119 5.36311 17.7406C3.98461 17.5854 3 16.4024 3 15.0552Z" fill="#0F172A"/>
</svg>

<svg xmlns="http://www.w3.org/2000/svg" viewBox="0 0 20 20" fill="currentColor" aria-hidden="true" data-slot="icon">
  <path fill-rule="evenodd" d="M6 3.75A2.75 2.75 0 0 1 8.75 1h2.5A2.75 2.75 0 0 1 14 3.75v.443c.572.055 1.14.122 1.706.2C17.053 4.582 18 5.75 18 7.07v3.469c0 1.126-.694 2.191-1.83 2.54-1.952.599-4.024.921-6.17.921s-4.219-.322-6.17-.921C2.694 12.73 2 11.665 2 10.539V7.07c0-1.321.947-2.489 2.294-2.676A41.047 41.047 0 0 1 6 4.193V3.75Zm6.5 0v.325a41.622 41.622 0 0 0-5 0V3.75c0-.69.56-1.25 1.25-1.25h2.5c.69 0 1.25.56 1.25 1.25ZM10 10a1 1 0 0 0-1 1v.01a1 1 0 0 0 1 1h.01a1 1 0 0 0 1-1V11a1 1 0 0 0-1-1H10Z" clip-rule="evenodd"/>
  <path d="M3 15.055v-.684c.126.053.255.1.39.142 2.092.642 4.313.987 6.61.987 2.297 0 4.518-.345 6.61-.987.135-.041.264-.089.39-.142v.684c0 1.347-.985 2.53-2.363 2.686a41.454 41.454 0 0 1-9.274 0C3.985 17.585 3 16.402 3 15.055Z"/>
</svg>
